src/2-landmarks/assistant--handle-money.svg

<svg width="1300" height="1000" viewBox="0 0 1300 1000" fill="none" xmlns="http://www.w3.org/2000/svg"><path fill-rule="evenodd" clip-rule="evenodd" d="M976.772 338c1.842-.004 8.879-.506 12.648-1.914 4.509-1.684 8.751-4.937 11.68-8.613 2.11-2.652 4.27-8.036 5.31-10.829.44-1.176.76-2.388 1.01-3.617l4.86-23.833c.29-1.783.49-3.939.49-5.742 0-4.783-.91-9.015-2.92-13.398-2.01-4.383-4.58-8.232-8.27-11.484-3.68-3.252-8.52-6.048-13.261-7.625-4.737-1.466-6.585-1.778-11.547-1.945-4.625.038-7.297.483-11.676 1.945-5.64 1.883-8.78 3.629-13.135 7.625-4.086 3.749-6.038 6.446-8.271 11.484-2.173 4.905-2.899 8.047-2.918 13.398-.009 2.25.486 5.742.486 5.742l4.093 24.154c.19 1.122.44 2.231.802 3.31.883 2.63 2.832 7.831 5.321 10.853 3.679 4.466 6.714 6.496 12.162 8.575 4.835 1.845 13.136 1.914 13.136 1.914Zm0-7c1.484-.004 7.153-.427 10.189-1.613 3.631-1.419 7.049-4.16 9.405-7.258 1.649-2.168 3.338-6.503 4.204-8.91.41-1.135.7-2.302.94-3.486l3.87-19.862c.23-1.502.39-3.319.39-4.839 0-4.03-.73-7.596-2.35-11.29-1.62-3.694-3.695-6.937-6.662-9.677-2.967-2.741-6.865-5.097-10.684-6.426-3.816-1.236-5.305-1.498-9.302-1.639-3.726.032-5.878.407-9.406 1.639-4.543 1.587-7.072 3.058-10.581 6.426-3.291 3.159-4.864 5.431-6.662 9.677-1.751 4.134-2.336 6.781-2.351 11.29-.007 1.896.391 4.839.391 4.839l3.265 20.155c.175 1.079.404 2.145.742 3.184.738 2.271 2.275 6.477 4.223 8.951 2.964 3.764 5.409 5.474 9.797 7.226 3.895 1.555 10.582 1.613 10.582 1.613Zm102.658 138.162c0-1.662-5.91-57.127-23.43-93.162-15.05-29.175-39.06-33.545-77.183-33.979-36.975-.426-67.042 5.516-82.944 33.197-15.441 36.104-30.279 89.186-30.279 89.186L814 502.5l-11.529 3.093 3.534-6.121a3 3 0 0 0-1.098-4.098l-51.095-29.5a3 3 0 0 0-4.098 1.098l-19.5 33.775a3 3 0 0 0 1.098 4.098l51.095 29.5c.168.097.341.176.518.237a11.908 11.908 0 0 0 8.513 2.992L832.5 535.5l79-43L897.996 718l1.5 156-15.598 6.406a20.001 20.001 0 0 0-12.402 18.501V900H0v100h1300V900h-220.5c0-7.632-4.4-14.58-11.3-17.842L1052 874.5l2-156.5-6.5-118.5 5.86 22.986c.09.318.33.569.65.657 12.05 3.376 23.88-6.04 23.29-18.546l-1.52-32.227s3.65-59.37 3.65-103.208Zm-300.807 54.915c.044-6.907 4.634-13.329 11.775-15.245l2.509-.673 5.036-8.723-44.167-25.5-15.5 26.847 40.347 23.294ZM1071.5 900c0-5.192-2.97-9.927-7.64-12.189l-20.18-9.77 2.16-161.021L1037 518l-3-30-5.31-67.564a2.252 2.252 0 0 1 2.25-2.425c1.13.006 2.08.843 2.22 1.96l6.35 49.12 8.49 104.402 11.22 42.712c.06.251.29.425.55.425 6.61 0 11.84-5.604 11.38-12.2l-2.16-30.937 3.44-101.023s-4.44-56.683-20.98-91.955c-14.2-28.557-36.99-30.069-72.96-30.495-34.892-.416-62.265 3.4-77.27 30.495C886.648 415.854 873 469.5 873 469.5L817 509l-27.066 8.935a6.293 6.293 0 0 0 2.424 12.252l37.424-2.694L910 483.5l12.789-64.417a1.318 1.318 0 0 1 2.609.351L920.5 487.5l-3 30.5-3 55.855-9.5 143.153 2.5 161.007-21.216 9.112a10 10 0 0 0-6.052 9.022l-.065 3.851H958l-2.09-24.01a4.964 4.964 0 0 0 4.993-5.049l-2.158-126.82 13.379-145.808a4.504 4.504 0 0 1 8.974.044l11.912 145.779-.726 127.575a4.287 4.287 0 0 0 4.316 4.31L994.609 900h76.891Zm-84.004 0 1.5-18a10 10 0 0 1-4-8V746l-9-125-9.5 125 1.439 127.592a9.97 9.97 0 0 1-4.439 8.408l1.5 18h22.5Z" fill="#000"/></svg>

<svg width="1300" height="1000" viewBox="0 0 1300 1000" fill="none" xmlns="http://www.w3.org/2000/svg">
<path fill-rule="evenodd" clip-rule="evenodd" d="M976.772 338C978.614 337.996 985.651 337.494 989.42 336.086C993.929 334.402 998.171 331.149 1001.1 327.473C1003.21 324.821 1005.37 319.437 1006.41 316.644C1006.85 315.468 1007.17 314.256 1007.42 313.027L1012.28 289.194C1012.57 287.411 1012.77 285.255 1012.77 283.452C1012.77 278.669 1011.86 274.437 1009.85 270.054C1007.84 265.671 1005.27 261.822 1001.58 258.57C997.9 255.318 993.06 252.522 988.319 250.945C983.582 249.479 981.734 249.167 976.772 249C972.147 249.038 969.475 249.483 965.096 250.945C959.456 252.828 956.316 254.574 951.961 258.57C947.875 262.319 945.923 265.016 943.69 270.054C941.517 274.959 940.791 278.101 940.772 283.452C940.763 285.702 941.258 289.194 941.258 289.194L945.351 313.348C945.541 314.47 945.791 315.579 946.153 316.658C947.036 319.288 948.985 324.489 951.474 327.511C955.153 331.977 958.188 334.007 963.636 336.086C968.471 337.931 976.772 338 976.772 338ZM976.772 331C978.256 330.996 983.925 330.573 986.961 329.387C990.592 327.968 994.01 325.227 996.366 322.129C998.015 319.961 999.704 315.626 1000.57 313.219C1000.98 312.084 1001.27 310.917 1001.51 309.733L1005.38 289.871C1005.61 288.369 1005.77 286.552 1005.77 285.032C1005.77 281.002 1005.04 277.436 1003.42 273.742C1001.8 270.048 999.725 266.805 996.758 264.065C993.791 261.324 989.893 258.968 986.074 257.639C982.258 256.403 980.769 256.141 976.772 256C973.046 256.032 970.894 256.407 967.366 257.639C962.823 259.226 960.294 260.697 956.785 264.065C953.494 267.224 951.921 269.496 950.123 273.742C948.372 277.876 947.787 280.523 947.772 285.032C947.765 286.928 948.163 289.871 948.163 289.871L951.428 310.026C951.603 311.105 951.832 312.171 952.17 313.21C952.908 315.481 954.445 319.687 956.393 322.161C959.357 325.925 961.802 327.635 966.19 329.387C970.085 330.942 976.772 331 976.772 331Z" fill="black"/>
<path fill-rule="evenodd" clip-rule="evenodd" d="M1079.43 469.162C1079.43 467.5 1073.52 412.035 1056 376C1040.95 346.825 1016.94 342.455 978.817 342.021C941.842 341.595 911.775 347.537 895.873 375.218C880.432 411.322 865.594 464.404 865.594 464.404L814 502.5L802.471 505.593L806.005 499.472C806.834 498.037 806.342 496.202 804.907 495.374L753.812 465.874C752.377 465.046 750.542 465.537 749.714 466.972L730.214 500.747C729.385 502.182 729.877 504.017 731.312 504.845L782.407 534.345C782.575 534.442 782.748 534.521 782.925 534.582C785.211 536.612 788.247 537.735 791.438 537.574L832.5 535.5L911.5 492.5L897.996 718L899.496 874L883.898 880.406C876.395 883.488 871.496 890.796 871.496 898.907V900H0V1000H1300V900H1079.5C1079.5 892.368 1075.1 885.42 1068.2 882.158L1052 874.5L1054 718L1047.5 599.5L1053.36 622.486C1053.45 622.804 1053.69 623.055 1054.01 623.143C1066.06 626.519 1077.89 617.103 1077.3 604.597L1075.78 572.37C1075.78 572.37 1079.43 513 1079.43 469.162ZM778.623 524.077C778.667 517.17 783.257 510.748 790.398 508.832L792.907 508.159L797.943 499.436L753.776 473.936L738.276 500.783L778.623 524.077ZM1071.5 900C1071.5 894.808 1068.53 890.073 1063.86 887.811L1043.68 878.041L1045.84 717.02L1037 518L1034 488L1028.69 420.436C1028.59 419.124 1029.63 418.005 1030.94 418.011C1032.07 418.017 1033.02 418.854 1033.16 419.971L1039.51 469.091L1048 573.493L1059.22 616.205C1059.28 616.456 1059.51 616.63 1059.77 616.63C1066.38 616.63 1071.61 611.026 1071.15 604.43L1068.99 573.493L1072.43 472.47C1072.43 472.47 1067.99 415.787 1051.45 380.515C1037.25 351.958 1014.46 350.446 978.49 350.02C943.598 349.604 916.225 353.42 901.22 380.515C886.648 415.854 873 469.5 873 469.5L817 509L789.934 517.935C787.157 518.852 785.377 521.561 785.639 524.473C785.946 527.891 788.935 530.433 792.358 530.187L829.782 527.493L910 483.5L922.789 419.083C922.911 418.465 923.453 418.02 924.082 418.02C924.848 418.02 925.453 418.67 925.398 419.434L920.5 487.5L917.5 518L914.5 573.855L905 717.008L907.5 878.015L886.284 887.127C882.667 888.681 880.297 892.213 880.232 896.149L880.167 900H958L955.91 875.99C958.696 876.007 960.951 873.727 960.903 870.941L958.745 744.121L972.124 598.313C972.337 595.995 974.281 594.221 976.609 594.221C978.954 594.221 980.907 596.02 981.098 598.357L993.01 744.136L992.284 871.711C992.271 874.099 994.212 876.037 996.6 876.021L994.609 900H1071.5ZM987.496 900L988.996 882C986.478 880.111 984.996 877.148 984.996 874V746L975.996 621L966.496 746L967.935 873.592C967.973 876.965 966.303 880.129 963.496 882L964.996 900H987.496Z" fill="black"/>
</svg>
